icons/1_Primary/GoatCounter.svg

<svg xmlns="http://www.w3.org/2000/svg" width="1024" height="1024" fill="none">
   <g clip-path="url(#a)">
      <path fill="#8C72BD" d="M512 1024c282.77 0 512-229.23 512-512S794.77 0 512 0 0 229.23 0 512s229.23 512 512 512Z"/>
      <path fill="#fff" d="M647.18 369.87c-43.42-40.73-94.39-78.54-151.34-99-28.48-10.22-58.79-15.8-89.67-14.76a212.573 212.573 0 0 0-93 24.9c-6.36 3.36-14.76 16-14.23 25.22.53 9.22 3.82 12.59 5.53 14.82 3.41 4.47 4.83 5 6.16 6a58.492 58.492 0 0 0 6.69 4.25c4.51 2.58 10.16 5.52 17 9 13.76 6.92 32.07 15.71 50.53 24.42 20.84 9.84 27.63 12.88 42 19.48l-118.28 135a26.598 26.598 0 0 0-7.138 19.492 26.594 26.594 0 0 0 18.247 23.93 26.606 26.606 0 0 0 20.687-1.724 26.597 26.597 0 0 0 8.204-6.698l141.67-161.63a26.619 26.619 0 0 0 5.987-23.1 26.62 26.62 0 0 0-14.937-18.61s-37.18-17-73.69-34.22c-4.53-2.14-7.8-3.8-12.23-5.91 27.55-3.22 54.86.32 82.49 10.24 46.59 16.73 92.79 50.08 132.92 87.71C683.5 476.88 729.89 549.43 739 564l-17.93 47.28a485.808 485.808 0 0 1-81.44-10.11c-25.46-5.36-51.17-13.44-70.36-24.11-19.19-10.67-30.66-22.79-34.75-36.47a26.626 26.626 0 0 0-12.864-15.797 26.633 26.633 0 0 0-20.266-2.073 26.626 26.626 0 0 0-15.797 12.864 26.622 26.622 0 0 0-2.073 20.266c7.05 23.58 22.45 41.7 40.94 55.51-4.1 9.44-9.08 21.29-14.07 34.15-11.87 30.63-24.76 64.86-24.72 96a26.61 26.61 0 0 0 7.812 18.8 26.6 26.6 0 0 0 45.388-18.86c0-12.26 10-48.09 21.13-76.68 4-10.32 8-20 11.48-28.07 18.71 7.33 38.26 12.59 57.18 16.57C686.09 665.26 739 665.3 739 665.3a26.614 26.614 0 0 0 25-17.17l29.69-78.3a26.617 26.617 0 0 0-2.14-23.24S734 451.32 647.18 369.87Z"/>
   </g>
   <defs>
      <clipPath id="a">
         <path fill="#fff" d="M0 0h1024v1024H0z"/>
      </clipPath>
   </defs>
</svg>

<svg width="1024" height="1024" viewBox="0 0 1024 1024" fill="none" xmlns="http://www.w3.org/2000/svg">
<g clip-path="url(#clip0_2_2304)">
<path d="M512 1024C794.77 1024 1024 794.77 1024 512C1024 229.23 794.77 0 512 0C229.23 0 0 229.23 0 512C0 794.77 229.23 1024 512 1024Z" fill="#8C72BD"/>
<path d="M647.18 369.87C603.76 329.14 552.79 291.33 495.84 270.87C467.36 260.65 437.05 255.07 406.17 256.11C373.674 257.188 341.858 265.707 313.17 281.01C306.81 284.37 298.41 297.01 298.94 306.23C299.47 315.45 302.76 318.82 304.47 321.05C307.88 325.52 309.3 326.05 310.63 327.05C312.761 328.616 314.996 330.036 317.32 331.3C321.83 333.88 327.48 336.82 334.32 340.3C348.08 347.22 366.39 356.01 384.85 364.72C405.69 374.56 412.48 377.6 426.85 384.2L308.57 519.2C306.134 521.804 304.247 524.872 303.02 528.221C301.794 531.569 301.254 535.13 301.432 538.692C301.61 542.254 302.503 545.743 304.057 548.953C305.612 552.162 307.796 555.026 310.479 557.375C313.163 559.723 316.292 561.507 319.679 562.622C323.067 563.736 326.644 564.158 330.198 563.862C333.751 563.566 337.209 562.558 340.366 560.898C343.522 559.238 346.312 556.96 348.57 554.2L490.24 392.57C492.967 389.451 494.928 385.739 495.968 381.729C497.007 377.718 497.096 373.521 496.227 369.47C495.357 365.419 493.554 361.628 490.961 358.397C488.368 355.166 485.056 352.585 481.29 350.86C481.29 350.86 444.11 333.86 407.6 316.64C403.07 314.5 399.8 312.84 395.37 310.73C422.92 307.51 450.23 311.05 477.86 320.97C524.45 337.7 570.65 371.05 610.78 408.68C683.5 476.88 729.89 549.43 739 564L721.07 611.28C693.687 610.213 666.443 606.831 639.63 601.17C614.17 595.81 588.46 587.73 569.27 577.06C550.08 566.39 538.61 554.27 534.52 540.59C533.518 537.241 531.866 534.123 529.659 531.412C527.452 528.702 524.732 526.453 521.656 524.793C518.579 523.134 515.206 522.097 511.729 521.741C508.252 521.385 504.739 521.718 501.39 522.72C498.041 523.722 494.923 525.374 492.212 527.581C489.502 529.788 487.253 532.507 485.593 535.584C483.934 538.66 482.897 542.033 482.541 545.511C482.185 548.988 482.518 552.501 483.52 555.85C490.57 579.43 505.97 597.55 524.46 611.36C520.36 620.8 515.38 632.65 510.39 645.51C498.52 676.14 485.63 710.37 485.67 741.51C485.674 745.003 486.366 748.461 487.706 751.687C489.047 754.913 491.009 757.843 493.482 760.31C495.955 762.777 498.889 764.733 502.118 766.066C505.347 767.4 508.807 768.084 512.3 768.08C515.793 768.076 519.251 767.384 522.477 766.044C525.703 764.703 528.633 762.741 531.1 760.268C533.567 757.795 535.523 754.86 536.857 751.632C538.19 748.403 538.874 744.943 538.87 741.45C538.87 729.19 548.87 693.36 560 664.77C564 654.45 568 644.77 571.48 636.7C590.19 644.03 609.74 649.29 628.66 653.27C686.09 665.26 739 665.3 739 665.3C744.42 665.324 749.718 663.693 754.185 660.625C758.653 657.557 762.077 653.197 764 648.13L793.69 569.83C795.123 566.048 795.674 561.99 795.304 557.963C794.933 553.936 793.649 550.046 791.55 546.59C791.55 546.59 734 451.32 647.18 369.87Z" fill="white"/>
</g>
<defs>
<clipPath id="clip0_2_2304">
<rect width="1024" height="1024" fill="white"/>
</clipPath>
</defs>
</svg>
